X: 38248
T: Squirrel's
R: hornpipe
M: 4/4
K: Dmajor
|:AG|D2 DF AF D2|GDGB AF D2|Add B AFDE|AEED E2 AF|
D2 DF AF D2|GDGB AF D2|AddB ABAF|E2 D2 D2:|
|:de|fdBA B2 de|fdBA B3 A|d3 e f2 ed|BABA FAAF|
D2 DF AF D2|GDGB AF D2|AddB AFFD|E2 D2 D2:|

